demos/KANBAN/public/icons/Order.svg

<svg width="24" height="24" viewBox="0 0 24 24" fill="none" xmlns="http://www.w3.org/2000/svg">
<path d="M15.0859 2.51782C15.1072 2.51782 15.147 2.51691 15.1846 2.52759C15.2196 2.53755 15.2532 2.5579 15.2793 2.59204L21.9248 6.52954C22.0375 6.57563 22.0995 6.68921 22.0996 6.8147V21.136C22.0995 21.2326 22.0672 21.3206 22.0029 21.385C21.9384 21.4495 21.8497 21.4827 21.7529 21.4827H7.43262C7.38389 21.4827 7.33845 21.4742 7.2959 21.4553C7.25381 21.4366 7.21905 21.4097 7.18848 21.3792L7.18652 21.3772L2.00293 15.9465C1.97254 15.916 1.94533 15.8819 1.92676 15.8401C1.90789 15.7976 1.90039 15.752 1.90039 15.7034V2.8645C1.90039 2.76765 1.93258 2.67899 1.99707 2.6145C2.06158 2.55002 2.15031 2.51782 2.24707 2.51782H15.0859ZM7.7793 20.7883H21.4062V7.16138H16.4209V10.7649C16.4209 10.8616 16.3885 10.9504 16.3242 11.0149C16.2597 11.0794 16.1709 11.1125 16.0742 11.1125H12.8643C12.7674 11.1125 12.6787 11.0794 12.6143 11.0149C12.5499 10.9504 12.5176 10.8616 12.5176 10.7649V7.16138H7.7793V20.7883ZM2.59375 15.5637L7.08496 20.2678V6.98657L2.59375 3.55981V15.5637ZM13.2109 10.4182H15.7275V7.16138H13.2109V10.4182ZM16.4258 6.46802H20.4756L14.9844 3.21118H11.541L16.4258 6.46802ZM12.9688 6.46802H15.1768L10.291 3.21118H8.08301L12.9688 6.46802ZM7.54102 6.46802H11.7197L6.83398 3.21118H3.2832L7.54102 6.46802Z" fill="#5D6679" stroke="#5D6679" stroke-width="0.2"/>
</svg>

<svg xmlns="http://www.w3.org/2000/svg" width="24" height="24" fill="none"><path fill="#5D6679" stroke="#5D6679" stroke-width=".2" d="M15.086 2.518c.021 0 .061-.001.099.01a.18.18 0 0 1 .094.064l6.646 3.938c.113.046.174.16.175.285v14.321a.346.346 0 0 1-.097.249.348.348 0 0 1-.25.098H7.433a.332.332 0 0 1-.245-.104l-.001-.002-5.184-5.43a.356.356 0 0 1-.076-.107.332.332 0 0 1-.027-.137V2.865c0-.097.033-.186.097-.25a.347.347 0 0 1 .25-.097h12.839Zm-7.307 18.27h13.627V7.161h-4.985v3.604a.348.348 0 0 1-.097.25.348.348 0 0 1-.25.098h-3.21a.347.347 0 0 1-.25-.098.347.347 0 0 1-.096-.25V7.16H7.779v13.627Zm-5.185-5.224 4.491 4.704V6.987L2.594 3.56v12.004Zm10.617-5.146h2.516V7.161h-2.516v3.257Zm3.215-3.95h4.05l-5.492-3.257h-3.443l4.885 3.257Zm-3.457 0h2.208L10.29 3.211H8.083l4.886 3.257Zm-5.428 0h4.179L6.834 3.211h-3.55L7.54 6.468Z"/></svg>
